icon-themes/colibre_svg/vcl/res/not_allowed.svg

<svg viewBox="0 0 256 256" xmlns="http://www.w3.org/2000/svg"><path d="m128 48c-44 0-80 36-80 80 0 44.08802 36 80 80 80 44.08802 0 80-35.91198 80-80 0-44-35.91198-80-80-80zm0 32c26.59662.009 47.984 21.40091 47.984 48 0 7.11773-2.13894 13.85979-5.15625 20.21875l-63.0465-63.062502c6.35896-3.017312 13.10102-5.138688 20.21875-5.156248zm-42.843752 27.78125 63.062502 63.0625c-6.35896 3.01731-13.10102 5.13869-20.21875 5.15625-26.59909 0-48-21.36-48-48 0-7.11773 2.138936-13.85979 5.156248-20.21875z" fill="#fff"/><path d="m128 56a72 72 0 0 0 -72 72 72 72 0 0 0 72 72 72 72 0 0 0 72-72 72 72 0 0 0 -72-72zm0 16a56 56 0 0 1 56 56 56 56 0 0 1 -11.2 33.6l-78.4-78.4a56 56 0 0 1 33.6-11.2zm-44.8 22.4 78.28125 78.28125a56 56 0 0 1 -33.48125 11.31875 56 56 0 0 1 -56-56 56 56 0 0 1 11.2-33.6z"/></svg>

<svg xmlns="http://www.w3.org/2000/svg" viewBox="0 0 256 256">
  <path
     style="fill:#ffffff"
     d="m 128,48 c -44,0 -80,36 -80,80 0,44.08802 36,80 80,80 44.08802,0 80,-35.91198 80,-80 0,-44 -35.91198,-80 -80,-80 z m 0,32 v 0 c 26.59662,0.009 47.984,21.40091 47.984,48 0,7.11773 -2.13894,13.85979 -5.15625,20.21875 L 107.78125,85.156248 C 114.14021,82.138936 120.88227,80.01756 128,80 Z m -42.843752,27.78125 63.062502,63.0625 C 141.85979,173.86106 135.11773,175.98244 128,176 101.40091,176 80,154.64 80,128 v 0 c 0,-7.11773 2.138936,-13.85979 5.156248,-20.21875 z"
     />
  <path
     style="fill:#000000"
     d="m 128,56 a 72,72 0 0 0 -72,72 72,72 0 0 0 72,72 72,72 0 0 0 72,-72 72,72 0 0 0 -72,-72 z m 0,16 a 56,56 0 0 1 56,56 56,56 0 0 1 -11.2,33.6 L 94.4,83.2 A 56,56 0 0 1 128,72 Z m -44.8,22.4 78.28125,78.28125 A 56,56 0 0 1 128,184 56,56 0 0 1 72,128 56,56 0 0 1 83.2,94.4 Z"
     />
</svg>
